X:35
T:Elmer's Waltz
S:Sue Ward
R:waltz
M:3/4
L:1/8
K:Dm
A,2- || A2D2F2 | A4A2 | B2A2G2 | F3ED2 | A,2 ^C2E2 | G4G2 | G2F2E2 | F3ED2 |
A,2D2F2 | A4A2 | B2A2G2 | F3ED2 | A,2^C2E2 | A4A2 | =BA GA BB^c | d4 :|
A2 |: Ad fa fd | Ad fa fd | Ad fa gf | g3fe2 |
Ac eg ec | ac eg ec | Ac eg fe |1 f3e d2 :|2 d4 ||
a2- |: ab ag fe | dA FD FA | e^c Ac ea | a^g g=b bg |
A4A2 | ab ag fe | dA FD FA | e^c A2 Ac | ^cd3 :|
